X:885
T:Ornithologist, The
C:Joe Buchanan's Scottish Tome - Page 442.0
I:442 0
C:Freeland Barbour
R:Two-step
Z:Carl Allison
L:1/8
M:6/8
K:A
P:Intro
A2 B e2 f | g e e^de | dBG EFG | A3- A2 |
%%vskip 20
S EFG | "A"A E c E | A3 c3 e | f2 e ^d2 e | "E"B3- B2 A |
"E"G2 e e^de | "E7"d2 B EFG | AGA c2 A | "E7"E3 EFG |
"A"A2 E c2 E | A3 c2 e | f2 e d2 e | "E"B3- B2 A |
"E"G2 B e2 f | g2 e e^de | "E7"dBG EFG | A3- A2 !fine!:|
%%vskip 25
CD^D | "A"E2 c c2 B | A2 G A2 E | "Bm"F2 d d2 c | "Bm"B2 ^A "B"B2 F |
"C"G2 e e^de | "E7"d2 B EFG | "A"AGA c2 A | "E7"E3 CD^D |
"A"E2 c c2 B | A2 G A2 E | "Bm"F2 d d2 c | "Bm"B2 ^A "B"B2 F |
"E"G2 e e^de | "E7"d2 B EFG | "A"AGA "E7"c2 B | "A"A3- A2S :|
%%newpage
T:Ornithologist (cont), The
[K:D]
ABc | "D"d3 A3 | F2 A f2 e | "G"d2 c d2 B | "D"A3- A2 d |
"A7"e2 ^d e2 f | g2 e c2 B | AGA d2 e | "D"f3 "A"ABc |
"D"d3 A3 | F2 A f2 e | "G"d2 c d2 B | "D"A3- A2 d |
"E7"e2 d e2 f | "A7"g2 e c2 B | AGA f2 e | "D"d3- d2 H:|
%%vskip 25
[K:G]
d^c=c | "G"B3 d3 | A3 B3 | d2 c B2 c | "D"A3- A2 G |
"D"F3 A3 | D3 F3 | "G"G2 F G2 A | "G"B2 d "D"edc |
"G"B3 d3 | G3 B3 | d2 c B2 c | "D"A3- A2 G |
"D"F2 A "D7"f2 e | "D"d2 ^c "D7"=c2 A | F2 D B2 A | "G"G3- G2 S!D.C.! :|

